X:436
T:MacDonald of the Isles
T:The Smith's a Gallant Fireman (Carrick's Rant)
S:Colin Hume's website,  colinhume.com  - chords can also be printed below the stave.
Q:1/2=56
M:4/4
L:1/8
K:D
[| "D"~D2 D>F {F}A2 A>B | A>B d>A F2 D2 | "Em"~E2 E>G {G}B2 B>f | g>f e>d "A7"B>A B/c/d |
| "D"~D2 D>F {F}A2 A>B | A>B d>A F2 D>F | "G"G>B G<B "D"F>A F<A | "Em"E>F G>A "A7"B>A B>c ||
|| "D"d2 f>e e<d d>B | A>B d>A F2 D2 | "Em"e2 g>f e<e e>f | "G"g>f e>d "A7"B>A B>c |
| "D"d2 f>e e<d d>B | A>B d>A F2 D2 | "G"G>B G<B "D"F>A F<A | "Em"E>F G>A "A7"B>A B/c/d |]

